X:1
T:Banks of the Nile
M:4/4
L:1/4
K:Eb
B/2-G/2| F E F G| c B G E| F E- C C| C3 C| E E G B| c2 e c/2c/2| B B E F|\
 G3 E/2E/2| E E G B| c c e c/2c/2| B B E F| G3 B/2G/2| F E F G| c B G E|\
 F- E C C| C3||
